;FLAVOR:Marlin
;TIME:10117
;Filament used: 16.1685m
;Layer height: 0.28
;MINX:60.341
;MINY:55.613
;MINZ:0.28
;MAXX:168.29
;MAXY:188.73
;MAXZ:63.28
;Generated with Cura_SteamEngine 4.7.1
M140 S50
M105
M190 S50
M104 S200
M105
M109 S200
M82 ;absolute extrusion mode
; Ender 3 Custom Start G-code
G92 E0 ; Reset Extruder
G28 ; Home all axes
G1 Z2.0 F3000 ; Move Z Axis up little to prevent scratching of Heat Bed
G1 X0.1 Y20 Z0.3 F5000.0 ; Move to start position
G1 X0.1 Y200.0 Z0.3 F1500.0 E15 ; Draw the first line
G1 X0.4 Y200.0 Z0.3 F5000.0 ; Move to side a little
G1 X0.4 Y20 Z0.3 F1500.0 E30 ; Draw the second line
G92 E0 ; Reset Extruder
G1 Z2.0 F3000 ; Move Z Axis up little to prevent scratching of Heat Bed
G1 X5 Y20 Z0.3 F5000.0 ; Move over to prevent blob squish
G92 E0
G92 E0
G1 F2700 E-5
;LAYER_COUNT:226
;LAYER:0
M107
G0 F6000 X64.309 Y73.043 Z0.28
;TYPE:SKIRT
G1 F2700 E0
G1 F1200 X64.571 Y72.82 E0.01602
G1 X80.157 Y59.957 E0.95701
G1 X80.775 Y59.46 E0.99394
G1 X81.55 Y58.891 E1.03871
G1 X81.785 Y58.734 E1.05187
G1 X82.254 Y58.433 E1.07782
G1 X82.741 Y58.13 E1.10452
G1 X83.355 Y57.758 E1.13795
G1 X84.177 Y57.307 E1.18161
G1 X85.035 Y56.927 E1.2253
G1 X85.658 Y56.704 E1.25612
G1 X86.579 Y56.405 E1.30121
G1 X86.905 Y56.304 E1.3171
G1 X87.562 Y56.113 E1.34896
G1 X88.473 Y55.89 E1.39263
G1 X89.4 Y55.745 E1.43632
G1 X90.044 Y55.692 E1.46641
G1 X90.921 Y55.645 E1.5073
G1 X91.254 Y55.631 E1.52282
G1 X92.063 Y55.613 E1.5605
G1 X92.971 Y55.63 E1.60279
G1 X93.233 Y55.646 E1.61501
G1 X93.505 Y55.666 E1.62771
G1 X93.796 Y55.692 E1.64132
G1 X107.51 Y57.004 E2.28281
G1 X108.395 Y57.101 E2.32427
G1 X109.318 Y57.243 E2.36775
G1 X109.586 Y57.296 E2.38047
G1 X109.973 Y57.378 E2.3989
G1 X110.673 Y57.54 E2.43235
G1 X111.386 Y57.714 E2.46653
G1 X112.287 Y57.975 E2.51021
G1 X113.162 Y58.311 E2.55385
G1 X113.778 Y58.602 E2.58557
G1 X114.652 Y59.048 E2.63126
G1 X114.942 Y59.202 E2.64655
G1 X115.529 Y59.524 E2.67773
G1 X116.332 Y60.009 E2.72141
G1 X117.09 Y60.562 E2.7651
G1 X117.594 Y60.988 E2.79583
G1 X118.278 Y61.603 E2.83866
G1 X118.461 Y61.771 E2.85023
G1 X118.603 Y61.905 E2.85932
G1 X119.088 Y62.37 E2.8906
G1 X119.759 Y63.073 E2.93586
G1 X120.062 Y63.422 E2.95738
G1 X120.262 Y63.661 E2.97189
G1 X165.289 Y118.217 E6.26572
G1 X165.867 Y118.936 E6.30868
G1 X166.423 Y119.691 E6.35234
G1 X166.912 Y120.492 E6.39604
G1 X167.331 Y121.331 E6.43971
G1 X167.677 Y122.202 E6.48335
G1 X167.948 Y123.1 E6.52702
G1 X168.141 Y124.018 E6.5707
G1 X168.255 Y124.949 E6.61438
G1 X168.29 Y125.886 E6.65804
G1 X168.244 Y126.823 E6.70172
G1 X168.119 Y127.752 E6.74537
G1 X167.93 Y128.613 E6.78642
G1 X167.716 Y129.425 E6.82552
G1 X167.396 Y130.584 E6.88151
G1 X166.799 Y133.007 E6.9977
G1 X166.276 Y135.415 E7.11245
G1 X165.801 Y137.957 E7.23286
G1 X165.403 Y140.48 E7.35179
G1 X165.086 Y142.936 E7.46711
G1 X164.837 Y145.427 E7.58367
G1 X164.654 Y147.966 E7.70221
G1 X164.546 Y150.472 E7.81901
G1 X164.507 Y153.004 E7.93692
G1 X164.54 Y155.52 E8.05409
G1 X164.644 Y158.006 E8.16995
G1 X164.814 Y160.471 E8.285
G1 X164.832 Y160.694 E8.29542
G1 X164.867 Y161.631 E8.33908
G1 X164.822 Y162.568 E8.38276
G1 X164.698 Y163.497 E8.4264
G1 X164.494 Y164.413 E8.4701
G1 X164.214 Y165.308 E8.51377
G1 X163.858 Y166.176 E8.55745
G1 X163.43 Y167.01 E8.6011
G1 X162.932 Y167.805 E8.64478
G1 X162.368 Y168.554 E8.68844
G1 X161.743 Y169.253 E8.7321
G1 X161.135 Y169.83 E8.77113
G1 X160.901 Y170.036 E8.78565
G1 X160.634 Y170.264 E8.802
G1 X141.727 Y185.866 E9.94344
G1 X141.189 Y186.299 E9.97559
G1 X140.434 Y186.856 E10.01928
G1 X139.634 Y187.346 E10.06296
G1 X138.796 Y187.766 E10.10661
G1 X137.924 Y188.113 E10.15031
G1 X137.027 Y188.385 E10.19396
G1 X136.109 Y188.579 E10.23765
G1 X135.178 Y188.694 E10.28133
G1 X134.241 Y188.73 E10.32499
G1 X133.304 Y188.686 E10.36867
G1 X132.375 Y188.562 E10.41231
G1 X131.459 Y188.359 E10.456
G1 X130.564 Y188.079 E10.49967
G1 X129.696 Y187.724 E10.54333
G1 X128.861 Y187.296 E10.58703
G1 X128.178 Y186.875 E10.62439
G1 X127.421 Y186.322 E10.66804
G1 X126.713 Y185.706 E10.71174
G1 X126.002 Y184.966 E10.75952
G1 X125.799 Y184.734 E10.77388
G1 X125.593 Y184.492 E10.78868
G1 X93.915 Y146.108 E13.10607
G1 X93.385 Y145.449 E13.14545
G1 X92.83 Y144.693 E13.18912
G1 X92.341 Y143.893 E13.23278
G1 X91.922 Y143.054 E13.27645
G1 X91.576 Y142.182 E13.32013
G1 X91.331 Y141.383 E13.35904
G1 X91.138 Y140.521 E13.40018
G1 X90.658 Y137.886 E13.52489
G1 X90.147 Y135.471 E13.63983
G1 X89.545 Y132.977 E13.7593
G1 X88.886 Y130.554 E13.87622
G1 X88.155 Y128.136 E13.99385
G1 X87.359 Y125.748 E14.11106
G1 X86.501 Y123.399 E14.22751
G1 X85.57 Y121.056 E14.3449
G1 X84.569 Y118.734 E14.46264
G1 X83.525 Y116.486 E14.57806
G1 X82.377 Y114.187 E14.69771
G1 X81.201 Y111.99 E14.81375
G1 X79.945 Y109.796 E14.93147
G1 X78.646 Y107.67 E15.04748
G1 X77.264 Y105.543 E15.16559
G1 X75.831 Y103.47 E15.28294
G1 X74.347 Y101.444 E15.39988
G1 X72.793 Y99.448 E15.51767
G1 X71.204 Y97.521 E15.63397
G1 X69.54 Y95.618 E15.75168
G1 X67.847 Y93.785 E15.86786
G1 X66.051 Y91.948 E15.98749
G1 X64.841 Y90.774 E16.066
G1 X64.699 Y90.634 E16.07528
G1 X64.533 Y90.467 E16.08625
G1 X64.129 Y90.038 E16.11368
G1 X63.849 Y89.719 E16.13345
G1 X63.564 Y89.381 E16.15404
G1 X63.236 Y88.982 E16.17809
G1 X62.773 Y88.407 E16.21246
G1 X62.217 Y87.652 E16.25612
G1 X61.727 Y86.852 E16.29981
G1 X61.306 Y86.014 E16.34347
G1 X60.959 Y85.143 E16.38713
G1 X60.687 Y84.245 E16.43082
G1 X60.493 Y83.328 E16.47447
G1 X60.377 Y82.397 E16.51815
G1 X60.341 Y81.46 E16.56182
G1 X60.385 Y80.523 E16.6055
G1 X60.509 Y79.593 E16.64918
G1 X60.711 Y78.678 E16.69282
G1 X60.991 Y77.782 E16.73653
G1 X61.346 Y76.914 E16.78019
G1 X61.774 Y76.08 E16.82384
G1 X62.271 Y75.284 E16.86754
G1 X62.834 Y74.534 E16.91121
G1 X63.459 Y73.835 E16.95487
G1 X64.077 Y73.247 E16.99459
G1 X64.309 Y73.043 E17.00898
G0 F6000 X64.573 Y73.344
G1 F1200 X64.826 Y73.129 E17.02444
G1 X80.523 Y60.175 E17.97211
G1 X81.025 Y59.772 E18.00208
G1 X81.773 Y59.224 E18.04526
G1 X82.008 Y59.067 E18.05842
G1 X82.202 Y58.94 E18.06922
G1 X82.821 Y58.551 E18.10326
G1 X82.948 Y58.472 E18.11022
G1 X83.562 Y58.1 E18.14365
G1 X84.37 Y57.658 E18.18654
G1 X85.212 Y57.287 E18.22938
G1 X85.782 Y57.084 E18.25756
G1 X86.703 Y56.785 E18.30265
G1 X87.017 Y56.688 E18.31795
G1 X87.674 Y56.497 E18.34981
G1 X88.568 Y56.279 E18.39266
G1 X89.478 Y56.139 E18.43553
G1 X90.066 Y56.091 E18.463
G1 X90.943 Y56.044 E18.50389
G1 X91.421 Y56.026 E18.52617
G1 X92.072 Y56.012 E18.55649
G1 X92.946 Y56.03 E18.59719
G1 X93.208 Y56.046 E18.60942
G1 X93.47 Y56.065 E18.62165
G1 X93.757 Y56.09 E18.63506
G1 X107.629 Y57.418 E19.28395
G1 X108.351 Y57.498 E19.31778
G1 X109.24 Y57.635 E19.35966
G1 X109.508 Y57.688 E19.37238
G1 X110.028 Y57.8 E19.39715
G1 X110.578 Y57.928 E19.42345
G1 X111.291 Y58.102 E19.45762
G1 X112.175 Y58.359 E19.50049
G1 X113.034 Y58.692 E19.54339
G1 X113.596 Y58.958 E19.57234
G1 X114.47 Y59.404 E19.61803
G1 X114.75 Y59.552 E19.63278
G1 X115.337 Y59.874 E19.66395
G1 X116.124 Y60.352 E19.70683
G1 X116.867 Y60.896 E19.74971
G1 X117.326 Y61.286 E19.77775
G1 X118.122 Y62.003 E19.82764
G1 X118.326 Y62.194 E19.84065
G1 X118.811 Y62.659 E19.87194
G1 X119.458 Y63.336 E19.91554
G1 X119.624 Y63.526 E19.92729
G1 X119.756 Y63.68 E19.93674
G1 X119.953 Y63.916 E19.95105
G1 X164.98 Y118.472 E23.24488
G1 X165.07 Y118.582 E23.2515
G1 X165.555 Y119.186 E23.28757
G1 X166.1 Y119.928 E23.33044
G1 X166.578 Y120.715 E23.37332
G1 X166.986 Y121.54 E23.41617
G1 X167.321 Y122.398 E23.45906
G1 X167.581 Y123.281 E23.50192
G1 X167.762 Y124.184 E23.54481
G1 X167.865 Y125.099 E23.58768
G1 X167.888 Y126.019 E23.63054
G1 X167.831 Y126.938 E23.67341
G1 X167.695 Y127.848 E23.71625
G1 X167.543 Y128.512 E23.74797
G1 X167.331 Y129.319 E23.78682
G1 X167.006 Y130.496 E23.84368
G1 X166.406 Y132.932 E23.9605
G1 X165.886 Y135.328 E24.07467
G1 X165.401 Y137.921 E24.1975
G1 X165.015 Y140.369 E24.3129
G1 X164.687 Y142.913 E24.43234
G1 X164.438 Y145.398 E24.54863
G1 X164.254 Y147.953 E24.66791
G1 X164.146 Y150.449 E24.78424
G1 X164.107 Y152.981 E24.90216
G1 X164.14 Y155.508 E25.01984
G1 X164.246 Y158.051 E25.13835
G1 X164.417 Y160.528 E25.25397
G1 X164.433 Y160.726 E25.26321
G1 X164.467 Y161.646 E25.30608
G1 X164.421 Y162.565 E25.34893
G1 X164.295 Y163.477 E25.3918
G1 X164.09 Y164.375 E25.43469
G1 X163.809 Y165.251 E25.47753
G1 X163.452 Y166.1 E25.52041
G1 X163.023 Y166.915 E25.5633
G1 X162.525 Y167.689 E25.60616
G1 X161.962 Y168.417 E25.64901
G1 X161.338 Y169.094 E25.69188
G1 X160.871 Y169.53 E25.72163
G1 X160.637 Y169.736 E25.73615
G1 X160.38 Y169.956 E25.7519
G1 X141.577 Y185.473 E26.88708
G1 X140.938 Y185.988 E26.9253
G1 X140.196 Y186.533 E26.96817
G1 X139.41 Y187.012 E27.01103
G1 X138.586 Y187.422 E27.05388
G1 X137.728 Y187.758 E27.09679
G1 X136.845 Y188.018 E27.13965
G1 X135.943 Y188.201 E27.18251
G1 X135.028 Y188.304 E27.22538
G1 X134.108 Y188.328 E27.26824
G1 X133.189 Y188.272 E27.31111
G1 X132.278 Y188.137 E27.35399
G1 X131.383 Y187.923 E27.39684
G1 X130.509 Y187.632 E27.43974
G1 X129.664 Y187.267 E27.4826
G1 X128.854 Y186.829 E27.52547
G1 X128.4 Y186.542 E27.55048
G1 X127.657 Y185.998 E27.59336
G1 X126.964 Y185.392 E27.63623
G1 X126.303 Y184.702 E27.68072
G1 X126.1 Y184.47 E27.69508
G1 X125.902 Y184.237 E27.70931
G1 X94.132 Y145.741 E30.03346
G1 X93.697 Y145.199 E30.06582
G1 X93.153 Y144.456 E30.1087
G1 X92.675 Y143.67 E30.15153
G1 X92.267 Y142.844 E30.19443
G1 X91.932 Y141.987 E30.23728
G1 X91.718 Y141.28 E30.27167
G1 X91.532 Y140.449 E30.31133
G1 X91.056 Y137.837 E30.43496
G1 X90.534 Y135.366 E30.55255
G1 X89.934 Y132.884 E30.67146
G1 X89.269 Y130.438 E30.78949
G1 X88.541 Y128.03 E30.90662
G1 X87.738 Y125.62 E31.02491
G1 X86.865 Y123.231 E31.14335
G1 X85.95 Y120.929 E31.25869
G1 X84.935 Y118.573 E31.37815
G1 X83.873 Y116.288 E31.49548
G1 X82.744 Y114.025 E31.61324
G1 X81.543 Y111.782 E31.73171
G1 X80.3 Y109.61 E31.84824
G1 X78.964 Y107.423 E31.96757
G1 X77.596 Y105.32 E32.08439
G1 X76.168 Y103.253 E32.20138
G1 X74.657 Y101.191 E32.32041
G1 X73.119 Y99.214 E32.43704
G1 X71.512 Y97.267 E32.5546
G1 X69.835 Y95.347 E32.6733
G1 X68.127 Y93.499 E32.79048
G1 X66.352 Y91.683 E32.90872
G1 X65.119 Y90.487 E32.98871
G1 X64.982 Y90.352 E32.99766
G1 X64.816 Y90.185 E33.00863
G1 X64.427 Y89.772 E33.03505
G1 X64.352 Y89.688 E33.04029
G1 X64.155 Y89.461 E33.05428
G1 X63.782 Y89.017 E33.08129
G1 X63.548 Y88.731 E33.09849
G1 X63.085 Y88.156 E33.13287
G1 X62.539 Y87.415 E33.17573
G1 X62.06 Y86.628 E33.21863
G1 X61.65 Y85.804 E33.26148
G1 X61.314 Y84.947 E33.30435
G1 X61.054 Y84.064 E33.34721
G1 X60.871 Y83.161 E33.39011
G1 X60.767 Y82.247 E33.43295
G1 X60.743 Y81.326 E33.47585
G1 X60.798 Y80.407 E33.51871
G1 X60.934 Y79.497 E33.56156
G1 X61.147 Y78.601 E33.60444
G1 X61.438 Y77.728 E33.64729
G1 X61.803 Y76.883 E33.69015
G1 X62.241 Y76.072 E33.73307
G1 X62.747 Y75.303 E33.77594
G1 X63.317 Y74.581 E33.81877
G1 X63.949 Y73.911 E33.86166
G1 X64.341 Y73.548 E33.88653
G1 X64.573 Y73.344 E33.90092
G0 F6000 X64.838 Y73.644
G1 F1200 X65.081 Y73.437 E33.91578
G1 X80.667 Y60.574 E34.85677
G1 X81.276 Y60.084 E34.89317
G1 X81.995 Y59.557 E34.93468
G1 X82.23 Y59.4 E34.94784
G1 X82.417 Y59.278 E34.95824
G1 X82.678 Y59.112 E34.97264
G1 X83.156 Y58.814 E34.99887
G1 X83.77 Y58.442 E35.0323
G1 X84.562 Y58.009 E35.07433
G1 X85.39 Y57.647 E35.11641
G1 X85.905 Y57.464 E35.14186
G1 X86.826 Y57.165 E35.18694
G1 X87.129 Y57.072 E35.2017
G1 X87.786 Y56.881 E35.23356
G1 X88.663 Y56.668 E35.27559
G1 X89.556 Y56.533 E35.31764
G1 X90.087 Y56.491 E35.34244
G1 X90.964 Y56.444 E35.38334
G1 X91.43 Y56.426 E35.40505
G1 X92.081 Y56.412 E35.43537
G1 X92.922 Y56.429 E35.47454
G1 X93.184 Y56.445 E35.48676
G1 X93.436 Y56.464 E35.49853
G1 X93.719 Y56.488 E35.51176
G1 X107.433 Y57.8 E36.15325
G1 X108.307 Y57.896 E36.1942
G1 X109.163 Y58.028 E36.23453
G1 X109.431 Y58.081 E36.24725
G1 X109.803 Y58.16 E36.26496
G1 X110.362 Y58.288 E36.29166
G1 X111.196 Y58.491 E36.33163
G1 X112.063 Y58.744 E36.37368
G1 X112.905 Y59.072 E36.41576
G1 X113.414 Y59.315 E36.44202
G1 X114.288 Y59.761 E36.48771
G1 X114.558 Y59.903 E36.50192
G1 X115.145 Y60.225 E36.53309
G1 X115.916 Y60.694 E36.57511
G1 X116.644 Y61.23 E36.61721
G1 X117.059 Y61.583 E36.64258
G1 X117.743 Y62.198 E36.68541
G1 X117.918 Y62.359 E36.69648
G1 X118.049 Y62.482 E36.70485
G1 X118.534 Y62.947 E36.73614
G1 X119.156 Y63.599 E36.7781
G1 X119.449 Y63.937 E36.79892
G1 X119.645 Y64.17 E36.8131
G1 X164.672 Y118.726 E40.10693
G1 X165.243 Y119.437 E40.1494
G1 X165.777 Y120.165 E40.19144
G1 X166.244 Y120.938 E40.23349
G1 X166.641 Y121.749 E40.27554
G1 X166.965 Y122.592 E40.31759
G1 X167.213 Y123.461 E40.35967
G1 X167.383 Y124.348 E40.40172
G1 X167.474 Y125.246 E40.44375
G1 X167.485 Y126.149 E40.4858
G1 X167.416 Y127.05 E40.52788
G1 X167.268 Y127.941 E40.56994
G1 X167.156 Y128.41 E40.59239
G1 X166.945 Y129.212 E40.631
G1 X166.629 Y130.357 E40.68631
G1 X166.011 Y132.865 E40.80659
G1 X165.489 Y135.268 E40.92109
G1 X165.012 Y137.823 E41.04212
G1 X164.617 Y140.327 E41.16016
G1 X164.29 Y142.858 E41.27899
G1 X164.039 Y145.365 E41.39631
G1 X163.856 Y147.907 E41.51498
G1 X163.746 Y150.462 E41.63407
G1 X163.707 Y152.981 E41.75138
G1 X163.74 Y155.528 E41.86998
G1 X163.846 Y158.058 E41.98789
G1 X164.021 Y160.591 E42.10612
G1 X164.034 Y160.758 E42.11392
G1 X164.067 Y161.66 E42.15595
G1 X164.019 Y162.562 E42.19801
G1 X163.892 Y163.456 E42.24006
G1 X163.686 Y164.335 E42.2821
G1 X163.403 Y165.193 E42.32417
G1 X163.046 Y166.023 E42.36624
G1 X162.616 Y166.817 E42.40828
G1 X162.118 Y167.57 E42.45032
G1 X161.556 Y168.277 E42.49238
G1 X160.607 Y169.23 E42.555
G1 X160.373 Y169.436 E42.56952
G1 X160.125 Y169.647 E42.58468
G1 X141.225 Y185.243 E43.72569
G1 X140.687 Y185.676 E43.75785
G1 X139.959 Y186.211 E43.79991
G1 X139.187 Y186.679 E43.84195
G1 X138.376 Y187.077 E43.88402
G1 X137.534 Y187.401 E43.92603
G1 X136.665 Y187.65 E43.96812
G1 X135.779 Y187.821 E44.01014
G1 X134.88 Y187.913 E44.05222
G1 X133.977 Y187.925 E44.09427
G1 X133.077 Y187.857 E44.13629
G1 X132.186 Y187.71 E44.17834
G1 X131.311 Y187.485 E44.22041
G1 X130.46 Y187.183 E44.26246
G1 X129.639 Y186.807 E44.30451
G1 X128.622 Y186.209 E44.35944
G1 X127.894 Y185.675 E44.40148
G1 X127.215 Y185.079 E44.44355
G1 X126.604 Y184.439 E44.48475
G1 X126.401 Y184.207 E44.49911
G1 X126.21 Y183.982 E44.51285
G1 X94.444 Y145.49 E46.83673
G1 X94.009 Y144.948 E46.86909
G1 X93.476 Y144.22 E46.91111
G1 X93.009 Y143.447 E46.95316
G1 X92.612 Y142.636 E46.99521
G1 X92.288 Y141.792 E47.0373
G1 X92.104 Y141.177 E47.06719
G1 X91.925 Y140.378 E47.10532
G1 X91.439 Y137.713 E47.23146
G1 X90.928 Y135.295 E47.34654
G1 X90.323 Y132.79 E47.46654
G1 X89.652 Y130.322 E47.58563
G1 X88.921 Y127.904 E47.70325
G1 X88.118 Y125.494 E47.82154
G1 X87.253 Y123.126 E47.93893
G1 X86.295 Y120.717 E48.05965
G1 X85.313 Y118.438 E48.1752
G1 X84.23 Y116.106 E48.29492
G1 X83.097 Y113.837 E48.41302
G1 X81.9 Y111.6 E48.53116
G1 X80.63 Y109.382 E48.65017
G1 X79.324 Y107.244 E48.76683
G1 X77.928 Y105.096 E48.88611
G1 X76.492 Y103.018 E49.00373
G1 X74.979 Y100.954 E49.1229
G1 X73.424 Y98.956 E49.24079
G1 X71.806 Y96.995 E49.35917
G1 X70.148 Y95.097 E49.47652
G1 X68.423 Y93.23 E49.59488
G1 X66.615 Y91.381 E49.7153
G1 X65.398 Y90.2 E49.79426
G1 X65.266 Y90.07 E49.80289
G1 X65.1 Y89.903 E49.81386
G1 X64.725 Y89.505 E49.83932
G1 X64.65 Y89.421 E49.84456
G1 X64.461 Y89.203 E49.858
G1 X64.092 Y88.764 E49.8847
G1 X63.859 Y88.48 E49.90181
G1 X63.396 Y87.905 E49.93618
G1 X62.862 Y87.177 E49.97822
G1 X62.393 Y86.405 E50.02028
G1 X61.995 Y85.594 E50.06235
G1 X61.671 Y84.752 E50.10436
G1 X61.422 Y83.884 E50.14641
G1 X61.25 Y82.997 E50.18848
G1 X61.158 Y82.099 E50.23051
G1 X61.146 Y81.196 E50.27256
G1 X61.213 Y80.295 E50.31463
G1 X61.36 Y79.404 E50.35668
G1 X61.586 Y78.529 E50.39876
G1 X61.887 Y77.678 E50.44079
G1 X62.263 Y76.857 E50.48284
G1 X62.71 Y76.072 E50.52491
G1 X63.225 Y75.33 E50.56696
G1 X63.803 Y74.636 E50.60902
G1 X64.606 Y73.848 E50.66141
G1 X64.838 Y73.644 E50.67579
G1 F2700 E45.67579
;MESH:wobble goal arm.stl
G0 F6000 X70.408 Y81.42
G0 X71.897 Y83.24
G0 X73.537 Y84.207
G0 X128.981 Y151.528
G0 X128.775 Y151.951
G0 X129.951 Y153.375
G0 X130.401 Y153.253
