;FLAVOR:Marlin
;TIME:11152
;Filament used: 17.0955m
;Layer height: 0.28
;MINX:66.1
;MINY:58.231
;MINZ:0.28
;MAXX:177.878
;MAXY:186.86
;MAXZ:63.28
;Generated with Cura_SteamEngine 4.7.1
M140 S50
M105
M190 S50
M104 S200
M105
M109 S200
M82 ;absolute extrusion mode
; Ender 3 Custom Start G-code
G92 E0 ; Reset Extruder
G28 ; Home all axes
G1 Z2.0 F3000 ; Move Z Axis up little to prevent scratching of Heat Bed
G1 X0.1 Y20 Z0.3 F5000.0 ; Move to start position
G1 X0.1 Y200.0 Z0.3 F1500.0 E15 ; Draw the first line
G1 X0.4 Y200.0 Z0.3 F5000.0 ; Move to side a little
G1 X0.4 Y20 Z0.3 F1500.0 E30 ; Draw the second line
G92 E0 ; Reset Extruder
G1 Z2.0 F3000 ; Move Z Axis up little to prevent scratching of Heat Bed
G1 X5 Y20 Z0.3 F5000.0 ; Move over to prevent blob squish
G92 E0
G92 E0
G1 F2700 E-5
;LAYER_COUNT:226
;LAYER:0
M107
G0 F6000 X69.541 Y113.981 Z0.28
;TYPE:SKIRT
G1 F2700 E0
G1 F1200 X119.729 Y63.794 E3.30493
G1 X119.836 Y63.688 E3.31195
G1 X120.318 Y63.219 E3.34326
G1 X121.049 Y62.568 E3.38884
G1 X121.263 Y62.394 E3.40168
G1 X121.484 Y62.219 E3.41481
G1 X122.022 Y61.804 E3.44645
G1 X122.718 Y61.284 E3.4869
G1 X123.494 Y60.756 E3.53061
G1 X124.311 Y60.296 E3.57427
G1 X124.901 Y60.019 E3.60462
G1 X125.726 Y59.66 E3.64651
G1 X126.037 Y59.53 E3.66221
G1 X126.736 Y59.251 E3.69725
G1 X127.621 Y58.941 E3.74092
G1 X128.53 Y58.707 E3.78462
G1 X129.174 Y58.59 E3.8151
G1 X130.063 Y58.456 E3.85697
G1 X130.391 Y58.411 E3.87238
G1 X131.157 Y58.319 E3.90831
G1 X132.15 Y58.246 E3.95467
G1 X132.59 Y58.235 E3.97516
G1 X132.985 Y58.231 E3.99356
G1 X146.872 Y58.232 E4.64019
G1 X147.571 Y58.242 E4.67275
G1 X148.429 Y58.288 E4.71276
G1 X148.688 Y58.312 E4.72487
G1 X149.095 Y58.357 E4.74393
G1 X149.793 Y58.448 E4.77671
G1 X150.62 Y58.567 E4.81562
G1 X151.541 Y58.741 E4.85926
G1 X152.445 Y58.993 E4.90296
G1 X153.087 Y59.225 E4.93475
G1 X153.979 Y59.578 E4.97942
G1 X154.276 Y59.7 E4.99437
G1 X154.918 Y59.976 E5.02691
G1 X155.763 Y60.383 E5.07058
G1 X156.57 Y60.86 E5.11423
G1 X157.131 Y61.25 E5.14604
G1 X157.9 Y61.821 E5.19064
G1 X158.155 Y62.016 E5.20559
G1 X158.709 Y62.453 E5.23845
G1 X159.388 Y63.036 E5.28012
G1 X159.603 Y63.236 E5.29379
G1 X159.889 Y63.512 E5.3123
G1 X174.286 Y77.909 E6.26037
G1 X174.754 Y78.389 E6.29158
G1 X175.38 Y79.088 E6.33528
G1 X175.943 Y79.837 E6.37891
G1 X176.441 Y80.632 E6.42259
G1 X176.869 Y81.466 E6.46624
G1 X177.225 Y82.334 E6.50992
G1 X177.505 Y83.229 E6.55359
G1 X177.709 Y84.145 E6.59729
G1 X177.833 Y85.074 E6.64093
G1 X177.878 Y86.011 E6.68461
G1 X177.843 Y86.948 E6.72827
G1 X177.728 Y87.879 E6.77195
G1 X177.534 Y88.797 E6.81564
G1 X177.263 Y89.695 E6.85932
G1 X176.916 Y90.566 E6.90298
G1 X176.497 Y91.405 E6.94665
G1 X176.007 Y92.205 E6.99033
G1 X175.451 Y92.96 E7.03399
G1 X174.888 Y93.607 E7.07393
G1 X174.68 Y93.828 E7.08806
G1 X174.458 Y94.057 E7.10291
G1 X173.972 Y94.543 E7.13491
G1 X173.448 Y95.054 E7.16899
G1 X172.749 Y95.68 E7.21269
G1 X172.052 Y96.251 E7.25464
G1 X171.141 Y96.976 E7.30886
G1 X169.23 Y98.587 E7.42524
G1 X167.362 Y100.255 E7.54185
G1 X165.517 Y101.998 E7.66004
G1 X163.746 Y103.77 E7.7767
G1 X162.014 Y105.602 E7.89409
G1 X160.337 Y107.481 E8.01136
G1 X158.718 Y109.401 E8.12831
G1 X157.152 Y111.368 E8.24538
G1 X155.644 Y113.377 E8.36235
G1 X154.172 Y115.459 E8.48108
G1 X152.781 Y117.546 E8.59787
G1 X151.471 Y119.641 E8.71292
G1 X150.173 Y121.852 E8.8323
G1 X148.965 Y124.05 E8.94909
G1 X147.827 Y126.267 E9.06513
G1 X146.727 Y128.567 E9.18385
G1 X145.712 Y130.854 E9.30035
G1 X144.746 Y133.208 E9.41884
G1 X143.868 Y135.531 E9.53447
G1 X143.041 Y137.924 E9.65237
G1 X142.296 Y140.291 E9.76792
G1 X141.674 Y142.505 E9.875
G1 X141.517 Y143.041 E9.90101
G1 X141.215 Y143.928 E9.94464
G1 X140.838 Y144.787 E9.98832
G1 X140.389 Y145.611 E10.03202
G1 X139.872 Y146.393 E10.07567
G1 X139.29 Y147.129 E10.11936
G1 X138.864 Y147.595 E10.14876
G1 X138.337 Y148.139 E10.18403
G1 X103.227 Y183.249 E12.49608
G1 X102.739 Y183.726 E12.52785
G1 X102.041 Y184.353 E12.57154
G1 X101.292 Y184.917 E12.6152
G1 X100.498 Y185.416 E12.65887
G1 X99.664 Y185.846 E12.70256
G1 X98.797 Y186.202 E12.7462
G1 X97.902 Y186.484 E12.7899
G1 X96.987 Y186.688 E12.83355
G1 X96.057 Y186.814 E12.87725
G1 X95.121 Y186.86 E12.92089
G1 X94.183 Y186.826 E12.96459
G1 X93.252 Y186.712 E13.00827
G1 X92.335 Y186.52 E13.05189
G1 X91.436 Y186.249 E13.09562
G1 X90.564 Y185.904 E13.13928
G1 X89.725 Y185.485 E13.18295
G1 X88.925 Y184.997 E13.22659
G1 X88.169 Y184.442 E13.27026
G1 X87.458 Y183.82 E13.31424
G1 X87.199 Y183.573 E13.33091
G1 X87.013 Y183.391 E13.34303
G1 X69.677 Y166.053 E14.4847
G1 X69.208 Y165.57 E14.51605
G1 X68.584 Y164.87 E14.55971
G1 X68.022 Y164.119 E14.60339
G1 X67.526 Y163.323 E14.64706
G1 X67.099 Y162.488 E14.69073
G1 X66.745 Y161.619 E14.73442
G1 X66.467 Y160.724 E14.77806
G1 X66.266 Y159.808 E14.82173
G1 X66.143 Y158.878 E14.86541
G1 X66.1 Y157.941 E14.90909
G1 X66.137 Y157.004 E14.95275
G1 X66.245 Y156.125 E14.99399
G1 X66.416 Y155.09 E15.04284
G1 X66.536 Y154.42 E15.07453
G1 X66.913 Y151.912 E15.19263
G1 X67.216 Y149.413 E15.30984
G1 X67.448 Y146.912 E15.4268
G1 X67.609 Y144.416 E15.54327
G1 X67.7 Y141.895 E15.66073
G1 X67.72 Y139.371 E15.77826
G1 X67.668 Y136.848 E15.89577
G1 X67.545 Y134.328 E16.01325
G1 X67.352 Y131.832 E16.12982
G1 X67.089 Y129.338 E16.2466
G1 X66.75 Y126.821 E16.36486
G1 X66.307 Y124.126 E16.49203
G1 X66.271 Y123.923 E16.50163
G1 X66.146 Y122.993 E16.54533
G1 X66.1 Y122.056 E16.58901
G1 X66.135 Y121.119 E16.63267
G1 X66.249 Y120.188 E16.67635
G1 X66.442 Y119.27 E16.72003
G1 X66.713 Y118.372 E16.7637
G1 X67.059 Y117.501 E16.80734
G1 X67.478 Y116.662 E16.85101
G1 X67.967 Y115.862 E16.89467
G1 X68.523 Y115.106 E16.93837
G1 X69.069 Y114.477 E16.97715
G1 X69.288 Y114.243 E16.99208
G1 X69.541 Y113.981 E17.00904
G0 F6000 X69.824 Y114.264
G1 F1200 X120.012 Y64.077 E20.31397
G1 X120.115 Y63.975 E20.32072
G1 X120.597 Y63.506 E20.35203
G1 X121.302 Y62.879 E20.39597
G1 X121.516 Y62.705 E20.40881
G1 X121.729 Y62.536 E20.42147
G1 X122.267 Y62.121 E20.45311
G1 X122.408 Y62.014 E20.46135
G1 X122.957 Y61.605 E20.49323
G1 X123.719 Y61.087 E20.53613
G1 X124.522 Y60.638 E20.57897
G1 X125.06 Y60.385 E20.60666
G1 X125.885 Y60.026 E20.64855
G1 X126.186 Y59.901 E20.66373
G1 X126.885 Y59.622 E20.69877
G1 X127.754 Y59.318 E20.74164
G1 X128.646 Y59.091 E20.7845
G1 X129.234 Y58.985 E20.81232
G1 X130.123 Y58.851 E20.85418
G1 X130.439 Y58.809 E20.86903
G1 X131.205 Y58.717 E20.90495
G1 X132.161 Y58.645 E20.94959
G1 X132.402 Y58.638 E20.96082
G1 X132.985 Y58.631 E20.98797
G1 X146.715 Y58.631 E21.6273
G1 X147.566 Y58.642 E21.66693
G1 X148.392 Y58.686 E21.70544
G1 X148.651 Y58.71 E21.71755
G1 X149.043 Y58.754 E21.73592
G1 X149.894 Y58.866 E21.77589
G1 X150.562 Y58.963 E21.80732
G1 X151.467 Y59.135 E21.85022
G1 X152.353 Y59.384 E21.89307
G1 X152.94 Y59.597 E21.92215
G1 X153.832 Y59.95 E21.96682
G1 X154.118 Y60.068 E21.98122
G1 X154.76 Y60.344 E22.01376
G1 X155.589 Y60.744 E22.05662
G1 X156.38 Y61.214 E22.09947
G1 X156.892 Y61.572 E22.12856
G1 X157.661 Y62.143 E22.17316
G1 X157.907 Y62.331 E22.18757
G1 X158.461 Y62.768 E22.22043
G1 X159.116 Y63.329 E22.26059
G1 X159.331 Y63.529 E22.27426
G1 X159.606 Y63.794 E22.29204
G1 X174 Y78.188 E23.23991
G1 X174.468 Y78.668 E23.27113
G1 X175.081 Y79.355 E23.314
G1 X175.633 Y80.092 E23.35688
G1 X176.118 Y80.874 E23.39973
G1 X176.534 Y81.695 E23.44258
G1 X176.877 Y82.55 E23.48548
G1 X177.145 Y83.431 E23.52836
G1 X177.335 Y84.331 E23.57119
G1 X177.446 Y85.245 E23.61406
G1 X177.478 Y86.165 E23.65693
G1 X177.429 Y87.085 E23.69983
G1 X177.301 Y87.997 E23.74271
G1 X177.094 Y88.894 E23.78558
G1 X176.811 Y89.77 E23.82844
G1 X176.452 Y90.617 E23.87128
G1 X176.021 Y91.431 E23.91417
G1 X175.521 Y92.204 E23.95703
G1 X174.956 Y92.931 E23.99991
G1 X174.597 Y93.333 E24.025
G1 X174.389 Y93.554 E24.03914
G1 X174.175 Y93.774 E24.05343
G1 X173.693 Y94.257 E24.0852
G1 X173.169 Y94.768 E24.11928
G1 X172.495 Y95.371 E24.16139
G1 X171.803 Y95.938 E24.20305
G1 X170.879 Y96.673 E24.25803
G1 X168.99 Y98.266 E24.37309
G1 X167.085 Y99.967 E24.49201
G1 X165.225 Y101.724 E24.61115
G1 X163.472 Y103.478 E24.72662
G1 X161.726 Y105.325 E24.84497
G1 X160.035 Y107.22 E24.96323
G1 X158.416 Y109.139 E25.08014
G1 X156.818 Y111.146 E25.1996
G1 X155.313 Y113.152 E25.31638
G1 X153.845 Y115.228 E25.43477
G1 X152.452 Y117.318 E25.55172
G1 X151.12 Y119.448 E25.6687
G1 X149.829 Y121.647 E25.78744
G1 X148.617 Y123.852 E25.9046
G1 X147.461 Y126.105 E26.02251
G1 X146.364 Y128.398 E26.14088
G1 X145.348 Y130.689 E26.25757
G1 X144.378 Y133.051 E26.37647
G1 X143.488 Y135.407 E26.49374
G1 X142.657 Y137.81 E26.61214
G1 X141.918 Y140.16 E26.72685
G1 X141.289 Y142.397 E26.83505
G1 X141.133 Y142.928 E26.86082
G1 X140.836 Y143.799 E26.90367
G1 X140.464 Y144.641 E26.94654
G1 X140.02 Y145.448 E26.98942
G1 X139.508 Y146.213 E27.03229
G1 X138.932 Y146.931 E27.07515
G1 X138.576 Y147.316 E27.09957
G1 X138.049 Y147.86 E27.13483
G1 X137.931 Y147.98 E27.14267
G1 X102.947 Y182.963 E29.44639
G1 X102.459 Y183.44 E29.47817
G1 X101.774 Y184.055 E29.52104
G1 X101.037 Y184.607 E29.56391
G1 X100.256 Y185.094 E29.60677
G1 X99.435 Y185.511 E29.64965
G1 X98.581 Y185.855 E29.69252
G1 X97.7 Y186.123 E29.7354
G1 X96.8 Y186.315 E29.77825
G1 X95.886 Y186.427 E29.82113
G1 X94.966 Y186.46 E29.86399
G1 X94.046 Y186.412 E29.90689
G1 X93.135 Y186.286 E29.94971
G1 X92.237 Y186.08 E29.99261
G1 X91.361 Y185.797 E30.03548
G1 X90.513 Y185.44 E30.07832
G1 X89.698 Y185.01 E30.12123
G1 X88.925 Y184.511 E30.16407
G1 X88.197 Y183.947 E30.20696
G1 X87.734 Y183.531 E30.23594
G1 X87.475 Y183.284 E30.2526
G1 X87.295 Y183.108 E30.26433
G1 X70.073 Y165.885 E31.39846
G1 X69.495 Y165.291 E31.43705
G1 X68.883 Y164.604 E31.47989
G1 X68.333 Y163.865 E31.52279
G1 X67.849 Y163.082 E31.56565
G1 X67.435 Y162.26 E31.60851
G1 X67.094 Y161.405 E31.65137
G1 X66.828 Y160.523 E31.69426
G1 X66.64 Y159.622 E31.73712
G1 X66.53 Y158.708 E31.77999
G1 X66.501 Y157.788 E31.82285
G1 X66.551 Y156.869 E31.86571
G1 X66.64 Y156.189 E31.89764
G1 X66.81 Y155.16 E31.9462
G1 X66.933 Y154.473 E31.9787
G1 X67.307 Y151.984 E32.0959
G1 X67.613 Y149.466 E32.21401
G1 X67.848 Y146.931 E32.33256
G1 X68.01 Y144.421 E32.44968
G1 X68.1 Y141.913 E32.56654
G1 X68.12 Y139.365 E32.68518
G1 X68.068 Y136.82 E32.80372
G1 X67.945 Y134.313 E32.92059
G1 X67.751 Y131.795 E33.03819
G1 X67.484 Y129.275 E33.15619
G1 X67.153 Y126.812 E33.27191
G1 X66.689 Y123.991 E33.40503
G1 X66.664 Y123.852 E33.4116
G1 X66.542 Y122.94 E33.45445
G1 X66.5 Y122.02 E33.49733
G1 X66.538 Y121.1 E33.54021
G1 X66.655 Y120.187 E33.58307
G1 X66.851 Y119.288 E33.62591
G1 X67.124 Y118.409 E33.66877
G1 X67.473 Y117.556 E33.71169
G1 X67.894 Y116.738 E33.75453
G1 X68.385 Y115.959 E33.7974
G1 X68.942 Y115.225 E33.84031
G1 X69.361 Y114.75 E33.8698
G1 X69.58 Y114.516 E33.88473
G1 X69.824 Y114.264 E33.90106
G0 F6000 X70.107 Y114.546
G1 F1200 X120.295 Y64.359 E37.20599
G1 X120.876 Y63.793 E37.24376
G1 X121.554 Y63.189 E37.28604
G1 X121.768 Y63.015 E37.29888
G1 X121.973 Y62.853 E37.31105
G1 X122.647 Y62.334 E37.35066
G1 X123.196 Y61.925 E37.38254
G1 X123.944 Y61.418 E37.42462
G1 X124.733 Y60.98 E37.46664
G1 X125.22 Y60.752 E37.49168
G1 X126.045 Y60.393 E37.53357
G1 X126.334 Y60.273 E37.54814
G1 X127.033 Y59.994 E37.58319
G1 X127.886 Y59.696 E37.62526
G1 X128.761 Y59.476 E37.66727
G1 X129.294 Y59.381 E37.69248
G1 X130.183 Y59.247 E37.73435
G1 X130.487 Y59.206 E37.74863
G1 X131.253 Y59.114 E37.78455
G1 X132.173 Y59.045 E37.82751
G1 X132.414 Y59.038 E37.83874
G1 X132.985 Y59.031 E37.86533
G1 X146.715 Y59.031 E38.50466
G1 X147.56 Y59.042 E38.54401
G1 X148.355 Y59.085 E38.58108
G1 X148.614 Y59.109 E38.59319
G1 X148.992 Y59.151 E38.6109
G1 X149.837 Y59.262 E38.65059
G1 X150.505 Y59.359 E38.68202
G1 X151.392 Y59.528 E38.72406
G1 X152.261 Y59.775 E38.76613
G1 X152.792 Y59.969 E38.79245
G1 X153.684 Y60.322 E38.83712
G1 X153.96 Y60.435 E38.85101
G1 X154.602 Y60.711 E38.88355
G1 X155.415 Y61.104 E38.9256
G1 X156.19 Y61.568 E38.96766
G1 X156.654 Y61.893 E38.99404
G1 X157.423 Y62.464 E39.03864
G1 X157.659 Y62.645 E39.05248
G1 X158.213 Y63.082 E39.08534
G1 X158.843 Y63.622 E39.12398
G1 X159.058 Y63.822 E39.13765
G1 X159.323 Y64.077 E39.15478
G1 X173.713 Y78.467 E40.10238
G1 X174.181 Y78.947 E40.1336
G1 X174.782 Y79.621 E40.17565
G1 X175.322 Y80.346 E40.21774
G1 X175.795 Y81.115 E40.25978
G1 X176.198 Y81.923 E40.30182
G1 X176.528 Y82.764 E40.34389
G1 X176.782 Y83.63 E40.38592
G1 X176.959 Y84.516 E40.42799
G1 X177.057 Y85.414 E40.47005
G1 X177.075 Y86.317 E40.5121
G1 X177.013 Y87.218 E40.55416
G1 X176.872 Y88.11 E40.59621
G1 X176.652 Y88.986 E40.63827
G1 X176.355 Y89.839 E40.68032
G1 X175.985 Y90.662 E40.72234
G1 X175.543 Y91.45 E40.76441
G1 X175.033 Y92.195 E40.80645
G1 X174.306 Y93.059 E40.85903
G1 X174.098 Y93.28 E40.87316
G1 X173.892 Y93.492 E40.88693
G1 X173.413 Y93.971 E40.91847
G1 X172.889 Y94.482 E40.95255
G1 X172.241 Y95.062 E40.99305
G1 X171.554 Y95.625 E41.03441
G1 X170.657 Y96.339 E41.08779
G1 X168.692 Y97.996 E41.20748
G1 X166.81 Y99.676 E41.32495
G1 X164.968 Y101.416 E41.44294
G1 X163.182 Y103.203 E41.56058
G1 X161.402 Y105.085 E41.6812
G1 X159.746 Y106.941 E41.79702
G1 X158.099 Y108.894 E41.91599
G1 X156.501 Y110.902 E42.03548
G1 X155.011 Y112.886 E42.15102
G1 X153.518 Y114.997 E42.27141
G1 X152.108 Y117.114 E42.38985
G1 X150.779 Y119.24 E42.5066
G1 X149.483 Y121.447 E42.62577
G1 X148.253 Y123.685 E42.74469
G1 X147.109 Y125.915 E42.86139
G1 X145.995 Y128.242 E42.98152
G1 X144.983 Y130.523 E43.09772
G1 X144.01 Y132.894 E43.21706
G1 X143.112 Y135.272 E43.33542
G1 X142.281 Y137.675 E43.45382
G1 X141.528 Y140.067 E43.57059
G1 X140.871 Y142.403 E43.68358
G1 X140.75 Y142.815 E43.70357
G1 X140.457 Y143.67 E43.74566
G1 X140.09 Y144.495 E43.78771
G1 X139.651 Y145.284 E43.82975
G1 X139.145 Y146.032 E43.8718
G1 X138.289 Y147.038 E43.93331
G1 X137.762 Y147.582 E43.96857
G1 X102.668 Y182.677 E46.27961
G1 X102.18 Y183.154 E46.31138
G1 X101.507 Y183.756 E46.35343
G1 X100.783 Y184.296 E46.39548
G1 X100.014 Y184.77 E46.43755
G1 X99.207 Y185.175 E46.47959
G1 X98.366 Y185.506 E46.52168
G1 X97.5 Y185.761 E46.56371
G1 X96.615 Y185.939 E46.60575
G1 X95.717 Y186.038 E46.64782
G1 X94.814 Y186.057 E46.68987
G1 X93.913 Y185.996 E46.73192
G1 X93.021 Y185.856 E46.77397
G1 X92.145 Y185.638 E46.816
G1 X91.291 Y185.342 E46.85809
G1 X90.467 Y184.973 E46.90013
G1 X89.679 Y184.532 E46.94218
G1 X88.933 Y184.022 E46.98425
G1 X88.011 Y183.241 E47.04052
G1 X87.752 Y182.994 E47.05718
G1 X87.578 Y182.825 E47.06848
G1 X70.251 Y165.496 E48.20956
G1 X69.782 Y165.013 E48.24091
G1 X69.182 Y164.338 E48.28296
G1 X68.645 Y163.612 E48.32501
G1 X68.173 Y162.842 E48.36706
G1 X67.772 Y162.033 E48.40911
G1 X67.443 Y161.191 E48.4512
G1 X67.191 Y160.324 E48.49324
G1 X67.016 Y159.438 E48.53529
G1 X66.92 Y158.54 E48.57735
G1 X66.904 Y157.637 E48.6194
G1 X66.967 Y156.737 E48.66141
G1 X67.035 Y156.254 E48.68412
G1 X67.204 Y155.231 E48.7324
G1 X67.328 Y154.537 E48.76523
G1 X67.702 Y152.054 E48.88216
G1 X68.014 Y149.48 E49.00289
G1 X68.244 Y147.001 E49.11882
G1 X68.41 Y144.427 E49.23892
G1 X68.5 Y141.93 E49.35527
G1 X68.52 Y139.36 E49.47494
G1 X68.468 Y136.828 E49.59287
G1 X68.344 Y134.297 E49.71086
G1 X68.148 Y131.759 E49.82939
G1 X67.88 Y129.216 E49.94846
G1 X67.545 Y126.727 E50.06541
G1 X67.094 Y123.987 E50.19471
G1 X67.058 Y123.782 E50.2044
G1 X66.939 Y122.887 E50.24644
G1 X66.9 Y121.985 E50.28848
G1 X66.941 Y121.083 E50.33053
G1 X67.061 Y120.188 E50.37258
G1 X67.26 Y119.307 E50.41463
G1 X67.536 Y118.447 E50.45669
G1 X67.887 Y117.615 E50.49874
G1 X68.311 Y116.817 E50.54081
G1 X68.803 Y116.06 E50.58285
G1 X69.653 Y115.023 E50.64529
G1 X69.872 Y114.789 E50.66021
G1 X70.107 Y114.546 E50.67595
G1 F2700 E45.67595
;MESH:wobble goal arm_MIR1.stl
G0 F6000 X94.478 Y157.339
G0 X93.406 Y156.267
G0 X93.239 Y157.518
G0 X93.314 Y158.557
G0 X93.94 Y159.394
G0 X94.82 Y159.721
G0 X96.068 Y159.777
;TYPE:WALL-INNER
G1 F2700 E50.67595
G1 F1200 X96.915 Y158.93 E50.73173
G1 X97.17 Y157.759 E50.78753
G1 X96.751 Y156.637 E50.8433
G1 X95.793 Y155.921 E50.89899
G1 X94.599 Y155.833 E50.95474
G1 X93.547 Y156.408 E51.01057
G1 X92.973 Y157.459 E51.06633
